application/data/icons/toolbar/mark_old_all.svg

<?xml version="1.0" encoding="utf-8"?>
<!-- Generator: Adobe Illustrator 14.0.0, SVG Export Plug-In . SVG Version: 6.00 Build 43363)  -->
<!DOCTYPE svg PUBLIC "-//W3C//DTD SVG 1.1//EN" "http://www.w3.org/Graphics/SVG/1.1/DTD/svg11.dtd">
<svg version="1.1" id="mark_x5F_new_x5F_all" xmlns="http://www.w3.org/2000/svg" xmlns:xlink="http://www.w3.org/1999/xlink"
	 x="0px" y="0px" width="32px" height="32px" viewBox="0 0 32 32" enable-background="new 0 0 32 32" xml:space="preserve">
<g>
	<g>
		<circle fill="#FFFFFF" cx="28.432" cy="13.312" r="1.485"/>
		<circle fill="#FFFFFF" cx="28.432" cy="18.996" r="1.486"/>
		<circle fill="#FFFFFF" cx="28.432" cy="24.679" r="1.486"/>
	</g>
</g>
<g>
	<path fill="#FFFFFF" d="M24.07,12.059l-7.213-0.46l-2.616-4.948h-0.005l-0.572-1.086c-0.401-0.76-0.975-0.749-1.333,0.033
		l-1.279,2.775l0,0L9.473,11.8l-6.355,1.102l-0.44,0.077c-0.846,0.146-0.987,0.643-0.357,1.226l0.594,0.548l4.472,4.126
		l-0.408,2.854l-0.557,3.856c-0.123,0.851,0.393,1.2,1.138,0.78l0.634-0.355l0.002,0.002l3.145-1.765l0.143-0.081l1.992-1.119
		l6.249,3.497c0.771,0.378,1.397-0.024,1.229-0.866l-1.626-7.127l5.26-5.138C25.188,12.802,24.922,12.161,24.07,12.059z
		 M16.809,20.671c-0.391,0.39-0.917,0.437-1.264,0.095l-2.119-2.078l-2.087,2.078c-0.342,0.344-0.873,0.295-1.26-0.094
		c-0.336-0.334-0.494-0.855-0.089-1.259l2.075-2.084l-2.116-2.078c-0.404-0.402-0.248-0.923,0.09-1.258
		c0.383-0.387,0.913-0.434,1.26-0.091l2.117,2.076l2.089-2.076c0.345-0.343,0.875-0.296,1.261,0.09
		c0.336,0.336,0.491,0.856,0.092,1.259l-2.08,2.086l2.121,2.076C17.301,19.816,17.143,20.336,16.809,20.671z"/>
</g>
</svg>

<?xml version="1.0" encoding="UTF-8" standalone="no"?>
<!-- Created with Inkscape (http://www.inkscape.org/) -->

<svg
   xmlns:dc="http://purl.org/dc/elements/1.1/"
   xmlns:cc="http://creativecommons.org/ns#"
   xmlns:rdf="http://www.w3.org/1999/02/22-rdf-syntax-ns#"
   xmlns:svg="http://www.w3.org/2000/svg"
   xmlns="http://www.w3.org/2000/svg"
   version="1.1"
   width="32"
   height="32"
   viewBox="0 0 32 32"
   id="mark_x5F_new_x5F_all"
   xml:space="preserve"><metadata
   id="metadata3121"><rdf:RDF><cc:Work
       rdf:about=""><dc:format>image/svg+xml</dc:format><dc:type
         rdf:resource="http://purl.org/dc/dcmitype/StillImage" /><dc:title></dc:title></cc:Work></rdf:RDF></metadata><defs
   id="defs3119">
	
	
</defs>

<g
   id="g3181"><g
     id="g3109">
		<circle
   cx="28.431"
   cy="13.312"
   r="1.485"
   id="circle3111"
   style="fill:#f1f2f2" />
		<circle
   cx="28.431"
   cy="18.996"
   r="1.4859999"
   id="circle3113"
   style="fill:#f1f2f2" />
		<circle
   cx="28.431"
   cy="24.679001"
   r="1.4859999"
   id="circle3115"
   style="fill:#f1f2f2" />
	</g><g
     transform="translate(-0.36692097,0.12209902)"
     id="g3135"><path
       d="M 24.07,12.059 16.857,11.599 14.241,6.651 H 14.236 L 13.664,5.565 C 13.263,4.805 12.689,4.816 12.331,5.598 l -1.279,2.775 0,0 -1.579,3.427 -6.355,1.102 -0.44,0.077 c -0.846,0.146 -0.987,0.643 -0.357,1.226 l 0.594,0.548 4.472,4.126 -0.408,2.854 -0.557,3.856 c -0.123,0.85 0.393,1.2 1.138,0.78 l 0.634,-0.356 0.002,0.003 3.145,-1.765 0.143,-0.081 1.992,-1.119 6.248,3.497 c 0.771,0.378 1.398,-0.024 1.23,-0.866 l -1.626,-7.127 5.26,-5.138 c 0.599,-0.615 0.334,-1.256 -0.518,-1.358 z m -7.262,8.612 c -0.39,0.389 -0.918,0.437 -1.263,0.094 l -2.119,-2.078 -2.087,2.078 C 10.997,21.109 10.466,21.06 10.079,20.672 9.743,20.338 9.585,19.817 9.99,19.413 l 2.075,-2.084 -2.116,-2.078 c -0.404,-0.402 -0.248,-0.923 0.09,-1.258 0.383,-0.387 0.913,-0.434 1.26,-0.091 l 2.117,2.076 2.089,-2.076 c 0.345,-0.343 0.875,-0.296 1.26,0.09 0.337,0.336 0.492,0.856 0.092,1.259 l -2.079,2.086 2.12,2.076 c 0.403,0.403 0.245,0.923 -0.09,1.258 z"
       id="path3137"
       style="fill:#f1f2f2" /></g></g></svg>
